!!!COM: Anton (Friedrich Wilhelm von) Webern
!!!OTL: [T416_Web-w35p48-49m1-10]
**kern	**dynam	**kern	**dynam	**kern	**dynam	**kern	**dynam	**kern	**text	**text	**text	**text	**text	**text	**dynam	**kern	**text	**text	**text	**text	**text	**text	**dynam	**kern	**text	**text	**text	**text	**text	**text	**dynam	**kern	**text	**text	**text	**text	**text	**text	**dynam	**kern	**dynam	**kern	**dynam	**kern	**dynam	**kern	**dynam	**kern	**dynam
*grp:A	*grp:A	*grp:A	*grp:A	*grp:B	*grp:B	*grp:B	*grp:B	*grp:A	*grp:A	*grp:A	*grp:A	*grp:A	*grp:A	*grp:A	*grp:A	*grp:A	*grp:A	*grp:A	*grp:A	*grp:A	*grp:A	*grp:A	*grp:A	*grp:B	*grp:B	*grp:B	*grp:B	*grp:B	*grp:B	*grp:B	*grp:B	*grp:B	*grp:B	*grp:B	*grp:B	*grp:B	*grp:B	*grp:B	*grp:B	*grp:A	*grp:A	*grp:A	*grp:A	*grp:B	*grp:B	*grp:A	*grp:A	*grp:B	*grp:B
*part13	*part13	*part12	*part12	*part11	*part11	*part10	*part10	*part9	*part9	*part9	*part9	*part9	*part9	*part9	*part9	*part8	*part8	*part8	*part8	*part8	*part8	*part8	*part8	*part7	*part7	*part7	*part7	*part7	*part7	*part7	*part7	*part6	*part6	*part6	*part6	*part6	*part6	*part6	*part6	*part5	*part5	*part4	*part4	*part3	*part3	*part2	*part2	*part1	*part1
*staff13	*	*staff12	*	*staff11	*	*staff10	*	*staff9	*staff9	*staff9	*staff9	*staff9	*staff9	*staff9	*	*staff8	*staff8	*staff8	*staff8	*staff8	*staff8	*staff8	*	*staff7	*staff7	*staff7	*staff7	*staff7	*staff7	*staff7	*	*staff6	*staff6	*staff6	*staff6	*staff6	*staff6	*staff6	*	*staff5	*	*staff4	*	*staff3	*	*staff2	*	*staff1	*
*I"Violoncello	*	*I"Viola	*	*I"Violin II	*	*I"Violin I	*	*I"Bass	*	*	*	*	*	*	*	*I"Tenor	*	*	*	*	*	*	*	*I"Alto	*	*	*	*	*	*	*	*I"Soprano	*	*	*	*	*	*	*	*I"Horn in F senza sord.	*	*I"Bass Clarinet in Bb	*	*I"Clarinet in Bb	*	*I"Alto Saxophone	*	*I"Oboe	*
*I'Vc.	*	*I'Vla.	*	*I'Vln. II	*	*I'Vln. I	*	*I'B.	*	*	*	*	*	*	*	*I'T.	*	*	*	*	*	*	*	*I'A.	*	*	*	*	*	*	*	*I'S.	*	*	*	*	*	*	*	*I'Hn.	*	*I'B. Cl.	*	*I'Cl.	*	*I'Alto Sax.	*	*I'Ob.	*
*clefF4	*	*clefC3	*	*clefG2	*	*clefG2	*	*clefF4	*	*	*	*	*	*	*	*clefGv2	*	*	*	*	*	*	*	*clefG2	*	*	*	*	*	*	*	*clefG2	*	*	*	*	*	*	*	*clefG2	*	*clefF4	*	*clefG2	*	*clefG2	*	*clefG2	*
*	*	*	*	*	*	*	*	*	*	*	*	*	*	*	*	*ITrd0c0	*	*	*	*	*	*	*	*	*	*	*	*	*	*	*	*	*	*	*	*	*	*	*	*ITrd0c0	*	*ITrd0c0	*	*ITrd0c0	*	*ITrd0c0	*	*	*
*k[]	*	*k[]	*	*k[]	*	*k[]	*	*k[]	*	*	*	*	*	*	*	*k[]	*	*	*	*	*	*	*	*k[]	*	*	*	*	*	*	*	*k[]	*	*	*	*	*	*	*	*k[0]	*	*k[0]	*	*k[0]	*	*k[0]	*	*k[]	*
*	*	*	*	*	*	*	*	*	*	*	*	*	*	*	*	*	*	*	*	*	*	*	*	*	*	*	*	*	*	*	*	*	*	*	*	*	*	*	*	*	*	*	*	*	*	*	*	*	*
*M2/2	*	*M2/2	*	*M2/2	*	*M2/2	*	*M2/2	*	*	*	*	*	*	*	*M2/2	*	*	*	*	*	*	*	*M2/2	*	*	*	*	*	*	*	*M2/2	*	*	*	*	*	*	*	*M2/2	*	*M2/2	*	*M2/2	*	*M2/2	*	*M2/2	*
=1	=1	=1	=1	=1	=1	=1	=1	=1	=1	=1	=1	=1	=1	=1	=1	=1	=1	=1	=1	=1	=1	=1	=1	=1	=1	=1	=1	=1	=1	=1	=1	=1	=1	=1	=1	=1	=1	=1	=1	=1	=1	=1	=1	=1	=1	=1	=1	=1	=1
!	!	!	!	!	!	!	!	!	!	!	!	!	!	!	!	!	!	!	!	!	!	!	!	!	!	!	!	!	!	!	!	!	!	!	!	!	!	!	!	!	!	!	!	!	!	!	!	!LO:TX:t=Sehr fließend [half] = ca. 168	!
!	!	!	!	!	!	!	!	!	!	!	!	!	!	!	!	!	!	!	!	!	!	!	!	!	!	!	!	!	!	!	!	!	!	!	!	!	!	!	!	!	!	!	!	!	!	!	!	!LO:TX:t=*Ed - All instruments in Webern's score are written as they sound.	!
1r	.	2r	.	1r	.	1r	.	1r	.	.	.	.	.	.	.	2r	.	.	.	.	.	.	.	1r	.	.	.	.	.	.	.	1r	.	.	.	.	.	.	.	1r	.	1r	.	1r	.	1r	.	1r	.
.	.	2dn~	pp	.	.	.	.	.	.	.	.	.	.	.	.	2dn~	1.Ge-	2.Ein	3.Der	1.It	2.A	3.Holds	pp	.	.	.	.	.	.	.	.	.	.	.	.	.	.	.	.	.	.	.	.	.	.	.	.	.	.
=2	=2	=2	=2	=2	=2	=2	=2	=2	=2	=2	=2	=2	=2	=2	=2	=2	=2	=2	=2	=2	=2	=2	=2	=2	=2	=2	=2	=2	=2	=2	=2	=2	=2	=2	=2	=2	=2	=2	=2	=2	=2	=2	=2	=2	=2	=2	=2	=2	=2
*M3/2	*	*M3/2	*	*M3/2	*	*M3/2	*	*M3/2	*	*	*	*	*	*	*	*M3/2	*	*	*	*	*	*	*	*M3/2	*	*	*	*	*	*	*	*M3/2	*	*	*	*	*	*	*	*M3/2	*	*M3/2	*	*M3/2	*	*M3/2	*	*M3/2	*
1.r	.	(1.fn	<	2r	.	1.r	.	1.r	.	.	.	.	.	.	.	1.fn	-loc-	Le-	kann	was	new	Hea-	.	2r	.	.	.	.	.	.	.	1.r	.	.	.	.	.	.	.	1.r	.	1.r	.	1.r	.	1.r	.	1.r	.
.	.	.	[[	2r	.	.	.	.	.	.	.	.	.	.	.	.	.	.	.	.	.	.	.	2r	.	.	.	.	.	.	.	.	.	.	.	.	.	.	.	.	.	.	.	.	.	.	.	.	.
.	.	.	>]	2b-X~	pp	.	.	.	.	.	.	.	.	.	.	.	.	.	.	.	.	.	.	2b-X	1.Ge-	2.Ein	3.Der	1.It	2.A	3.Holds	pp	.	.	.	.	.	.	.	.	.	.	.	.	.	.	.	.	.	.
!!LO:REH:t=A
=3	=3	=3	=3	=3	=3	=3	=3	=3	=3	=3	=3	=3	=3	=3	=3	=3	=3	=3	=3	=3	=3	=3	=3	=3	=3	=3	=3	=3	=3	=3	=3	=3	=3	=3	=3	=3	=3	=3	=3	=3	=3	=3	=3	=3	=3	=3	=3	=3	=3
*	*	*M4/2	*	*	*	*	*	*	*	*	*	*	*	*	*	*M4/2	*	*	*	*	*	*	*	*	*	*	*	*	*	*	*	*	*	*	*	*	*	*	*	*M4/2	*	*	*	*	*	*M4/2	*	*	*
!	!	!	!	!	!	!	!	!	!	!	!	!	!	!	!	!	!	!	!	!	!	!	!	!	!	!	!	!	!	!	!	!	!	!	!	!	!	!	!	!	!	!	!	!	!	!	!	!LO:TX:t=P:problem: Polymeter causes time signatures to not display (due to hidden barlines). Rests have not been compiled to facilitate readability of Durations.	!
2r	.	2d-X)	.	(1.Gn	<	2r	.	2r	.	.	.	.	.	.	.	2d-X	-kert	-ben	den	a	life	ven	.	1.Gn	-loc-	Le-	kann	was	new	Hea-	.	2r	.	.	.	.	.	.	.	2r	.	2r	.	2r	.	2r	.	2r	.
2r	.	2r	.	.	[[	2r	.	2r	.	.	.	.	.	.	.	2r	.	.	.	.	.	.	.	.	.	.	.	.	.	.	.	2r	.	.	.	.	.	.	.	2r	.	2r	.	2r	.	2r	.	2r	.
2r	.	(2cn	<[	.	>]	2r	.	2r	.	.	.	.	.	.	.	2cn	aus	ist	Him-	womb	Hea-	like	.	.	.	.	.	.	.	.	.	2f#X	1.Ge-	2.Ein	3.Der	1.It	2.A	3.Holds	pp	2r	.	2r	.	2r	.	2r	.	2f#X~	pp
=4	=4	=-	=-	=4	=4	=4	=4	=4	=4	=4	=4	=4	=4	=4	=4	=-	=-	=-	=-	=-	=-	=-	=-	=4	=4	=4	=4	=4	=4	=4	=4	=4	=4	=4	=4	=4	=4	=4	=4	=-	=-	=4	=4	=4	=4	=-	=-	=4	=4
*	*	*	*	*4/2	*	*	*	*	*	*	*	*	*	*	*	*	*	*	*	*	*	*	*	*M4/2	*	*	*	*	*	*	*	*	*	*	*	*	*	*	*	*	*	*	*	*M4/2	*	*	*	*	*
2r	.	2en)	.	2Bn)	.	2r	.	2r	.	.	.	.	.	.	.	2en	dem	ge-	-mel	that	ven	a	.	2Bn	-kert	-ben	den	a	life	ven	.	1.an	-loc-	Le-	kann	was	new	Hea-	.	2r	.	2r	.	2r	.	2r	.	(1.an	<[
=-	=-	=4	=4	=-	=-	=-	=-	=-	=-	=-	=-	=-	=-	=-	=-	=4	=4	=4	=4	=4	=4	=4	=4	=-	=-	=-	=-	=-	=-	=-	=-	=-	=-	=-	=-	=-	=-	=-	=-	=4	=4	=-	=-	=-	=-	=4	=4	=-	=-
2r	.	(1.Bn	.	2r	.	2r	.	2r	.	.	.	.	.	.	.	1.Bn	Scho-	-ge-	hal-	bore	gave	flow-	.	2r	.	.	.	.	.	.	.	.	.	.	.	.	.	.	.	2r	.	2r	.	2r	.	2r	.	.	.
2r	.	.	.	(2ccn	<[	2r	.	2dn	1.Ge-	2.Ein	3.Der	1.It	2.A	3.Holds	pp	.	.	.	.	.	.	.	.	2ccn	aus	ist	Him-	womb	Hea-	like	.	.	.	.	.	.	.	.	.	2r	.	2d~n	pp	2r	.	2r	.	.	.
=5	=5	=-	=-	=-	=-	=5	=5	=5	=5	=5	=5	=5	=5	=5	=5	=-	=-	=-	=-	=-	=-	=-	=-	=-	=-	=-	=-	=-	=-	=-	=-	=5	=5	=5	=5	=5	=5	=5	=5	=-	=-	=5	=5	=-	=-	=-	=-	=5	=5
*	*	*	*	*	*	*M4/2	*	*	*	*	*	*	*	*	*	*	*	*	*	*	*	*	*	*	*	*	*	*	*	*	*	*M4/2	*	*	*	*	*	*	*	*	*	*	*	*	*	*	*	*M4/2	*
2r	.	.	>]	2g#X)	.	2r	.	1.Bn	-loc-	Le-	kann	was	new	Hea-	.	.	.	.	.	.	.	.	.	2g#X	dem	ge-	-mel	that	ven	a	.	2fn	-kert	-ben	den	a	life	ven	.	2r	.	(1.Bn	<[	2r	.	2r	.	2fn)	>]
=-	=-	=-	=-	=5	=5	=-	=-	=-	=-	=-	=-	=-	=-	=-	=-	=-	=-	=-	=-	=-	=-	=-	=-	=5	=5	=5	=5	=5	=5	=5	=5	=-	=-	=-	=-	=-	=-	=-	=-	=-	=-	=-	=-	=5	=5	=-	=-	=-	=-
2r	.	2d#X)	.	(1.cc#X	.	2r	.	.	.	.	.	.	.	.	.	2d#X	-ße	-ben	-ten	him	us,	er	.	1.cc#X	Scho-	-ge-	hal-	bore	gave	flow-	.	2r	.	.	.	.	.	.	.	2r	.	.	.	2r	.	2r	.	2r	.
=-	=-	=5	=5	=-	=-	=-	=-	=-	=-	=	=	=-	=-	=-	=	=5	=5	=5	=5	=5	=5	=5	=5	=-	=-	=-	=-	=-	=-	=-	=-	=-	=-	=-	=-	=-	=-	=-	=-	=5	=5	=-	=-	=-	=-	=5	=5	=-	=
*	*	*M3/2	*	*	*	*	*	*	*	*	*	*	*	*	*	*M3/2	*	*	*	*	*	*	*	*	*	*	*	*	*	*	*	*	*	*	*	*	*	*	*	*M3/2	*	*	*	*	*	*M3/2	*	*	*
2r	.	2r	.	.	>]]	2r	.	.	.	.	.	.	.	.	.	2r	.	.	.	.	.	.	.	.	.	.	.	.	.	.	.	2een	aus	ist	Him-	womb	Hea-	like	.	2r	.	.	.	2r	.	2r	.	(2een	<[
=6	=6	=-	=-	=-	=-	=-	=-	=6	=6	=6	=6	=6	=6	=6	=6	=-	=-	=-	=-	=-	=-	=-	=-	=-	=-	=-	=-	=-	=-	=-	=-	=-	=-	=-	=-	=-	=-	=-	=-	=-	=-	=6	=6	=-	=-	=-	=-	=-	=-
*M4/2	*	*	*	*	*	*	*	*M4/2	*	*	*	*	*	*	*	*	*	*	*	*	*	*	*	*	*	*	*	*	*	*	*	*	*	*	*	*	*	*	*	*	*	*M4/2	*	*	*	*	*	*	*
2r	.	2r	.	.	.	2r	.	2d#X	-kert	-ben	den	a	life	ven	.	2r	.	.	.	.	.	.	.	.	.	.	.	.	.	.	.	2g#X	dem	ge-	-mel	that	ven	a	.	2r	.	2d#)	>]	2r	.	2r	.	2g#X)	.
=-	=-	=-	=-	=-	=-	=6	=6	=-	=-	=-	=-	=-	=-	=-	=-	=-	=-	=-	=-	=-	=-	=-	=-	=-	=-	=-	=-	=-	=-	=-	=-	=6	=6	=6	=6	=6	=6	=6	=6	=-	=-	=-	=-	=-	=-	=-	=-	=6	=6
2r	.	2r	.	2an)	.	2r	.	2r	.	.	.	.	.	.	.	2Gn	in	dem	und	in	the	and	.	2an	-ße	-ben	-ten	him	us,	er	.	1.d#X	Scho-	-ge-	hal-	bore	gave	flow-	.	2r	.	2r	.	2r	.	2Gn~	pp	(1.d#X	>]
=-	=-	=6	=6	=6	=6	=-	=-	=-	=-	=-	=-	=-	=-	=-	=-	=6	=6	=6	=6	=6	=6	=6	=6	=6	=6	=6	=6	=6	=6	=6	=6	=-	=-	=-	=-	=-	=-	=-	=-	=6	=6	=-	=-	=6	=6	=6	=6	=-	=-
*	*	*	*	*M3/2	*	*	*	*	*	*	*	*	*	*	*	*	*	*	*	*	*	*	*	*M3/2	*	*	*	*	*	*	*	*	*	*	*	*	*	*	*	*	*	*	*	*M3/2	*	*	*	*	*
2r	.	2r	.	2r	.	2r	.	2En	aus	ist	Him-	womb	Hea-	like	.	1f#X	Got-	Licht	führt	God's	light	leads	.	2r	.	.	.	.	.	.	.	.	.	.	.	.	.	.	.	2r	.	(2En	pp <	2r	.	1f#	<	.	.
2r	.	2r	.	2r	.	2r	.	2Cn	dem	ge-	-mel	that	ven	a	.	.	.	.	.	.	.	.	.	2r	.	.	.	.	.	.	.	.	.	.	.	.	.	.	.	2r	.	2Cn)	[	2r	.	.	[[	.	.
=7	=7	=-	=-	=-	=-	=-	=-	=7	=7	=7	=7	=7	=7	=7	=7	=-	=-	=-	=-	=-	=-	=-	=-	=-	=-	=-	=-	=-	=-	=-	=-	=-	=-	=-	=-	=-	=-	=-	=-	=-	=-	=7	=7	=-	=-	=-	=-	=-	=-
2r	.	2r	.	2r	.	2r	.	1.Fn	Scho-	-ge-	hal-	bore	gave	flow-	.	2B-X	-tes	von	zum	e-	of	to	.	2Fn	in	dem	und	in	the	and	.	2ggn~	-ße	-ben	-ten	him	us,	er	.	2r	.	(1.Fn	.	2F~n	pp	(2B-	.	2ggn~)	]
=-	=-	=7	=7	=7	=7	=7	=7	=-	=-	=-	=-	=-	=-	=-	=-	=7	=7	=7	=7	=7	=7	=7	=7	=7	=7	=7	=7	=7	=7	=7	=7	=7	=7	=7	=7	=7	=7	=7	=7	=7	=7	=-	=-	=7	=7	=7	=7	=7	=7
*	*	*	*	*	*	*M3/2	*	*	*	*	*	*	*	*	*	*	*	*	*	*	*	*	*	*	*	*	*	*	*	*	*	*M3/2	*	*	*	*	*	*	*	*	*	*	*	*	*	*	*	*M3/2	*
2r	.	2r	.	2r	.	2r	.	.	.	.	.	.	.	.	.	1.An	Früh-	die-	größ-	ter-	all	great-	.	1f#X	Got-	Licht	führt	God's	light	leads	.	2r	.	.	.	.	.	.	.	2r	.	.	>	1f#	<	1.An)	.	2r	.
2r	.	2r	.	2r	.	2r	.	.	.	.	.	.	.	.	.	.	.	.	.	.	.	.	.	.	.	.	.	.	.	.	.	2r	.	.	.	.	.	.	.	2r	.	.	.	.	[[	.	.	2r	.
2r	.	2r	.	2r	.	2bn~	pp	2C#X	-ße	-ben	-ten	him	us,	er	.	.	.	.	.	.	.	.	.	2dn	-tes	von	zum	e-	of	to	.	2bn	in	dem	und	in	the	and	.	2r	.	2C#)	]	(2dn	.	.	.	2r	.
!!LO:REH:t=B
=8	=8	=8	=8	=8	=8	=8	=8	=8	=8	=8	=8	=8	=8	=8	=8	=8	=8	=8	=8	=8	=8	=8	=8	=8	=8	=8	=8	=8	=8	=8	=8	=8	=8	=8	=8	=8	=8	=8	=8	=8	=8	=8	=8	=8	=8	=8	=8	=8	=8
*M3/2	*	*M2/2	*	*	*	*	*	*M3/2	*	*	*	*	*	*	*	*M2/2	*	*	*	*	*	*	*	*	*	*	*	*	*	*	*	*	*	*	*	*	*	*	*	*M2/2	*	*M3/2	*	*	*	*M2/2	*	*	*
2r	.	2r	.	2r	.	1B-X	<	2r	.	.	.	.	.	.	.	1g#X	-lings-	-ser	-ten	ni-	this	est	.	1.d#X	Früh-	die-	größ-	ter-	all	great-	.	1B-X	Got-	Licht	führt	God's	light	leads	.	1r	.	2r	.	1.d#)	.	(1g#	.	2r	.
2r	.	2r	.	2r	.	.	[[	2r	.	.	.	.	.	.	.	.	.	.	.	.	.	.	.	.	.	.	.	.	.	.	.	.	.	.	.	.	.	.	.	.	.	2r	.	.	.	.	>]	2r	.
=-	=-	=9	=9	=-	=-	=-	=-	=-	=-	=-	=-	=-	=-	=-	=-	=9	=9	=9	=9	=9	=9	=9	=9	=-	=-	=-	=-	=-	=-	=-	=-	=-	=-	=-	=-	=-	=-	=-	=-	=9	=9	=-	=-	=-	=-	=9	=9	=-	=-
*	*	*M4/2	*	*	*	*	*	*	*	*	*	*	*	*	*	*M4/2	*	*	*	*	*	*	*	*	*	*	*	*	*	*	*	*	*	*	*	*	*	*	*	*M4/2	*	*	*	*	*	*M4/2	*	*	*
2An~	pp	2r	.	2r	.	(2ddn	.	2An	in	dem	und	in	the	and	.	2cn~	-raum;	Welt;	Licht.	ty;	world.	light,	.	.	.	.	.	.	.	.	.	2ddn	-tes	von	zum	e-	of	to	.	2r	.	2r	.	.	.	2c~n)	.	2r	.
=9	=9	=-	=-	=9	=9	=9	=9	=9	=9	=9	=9	=9	=9	=9	=9	=-	=-	=-	=-	=-	=-	=-	=-	=9	=9	=9	=9	=9	=9	=9	=9	=9	=9	=9	=9	=9	=9	=9	=9	=-	=-	=9	=9	=9	=9	=-	=-	=9	=9
*	*	*	*	*M2/2	*	*	*	*	*	*	*	*	*	*	*	*	*	*	*	*	*	*	*	*M2/2	*	*	*	*	*	*	*	*	*	*	*	*	*	*	*	*	*	*	*	*M2/2	*	*	*	*	*
1BB-X	<	2r	.	2r	.	1.cc#X)	.	1BB-X	Got-	Licht	führt	God's	light	leads	.	2r	.	.	.	.	.	.	.	1en	-lings-	-ser	-ten	ni-	this	est	.	1.cc#X	Früh-	die-	größ-	ter-	all	great-	.	2r	.	2r	.	(1en	.	2r	.	2r	.
.	[[	2r	.	2r	.	.	.	.	.	.	.	.	.	.	.	2r	.	.	.	.	.	.	.	.	.	.	.	.	.	.	.	.	.	.	.	.	.	.	.	2r	.	2r	.	.	>]	1r	.	2r	.
=-	=-	=-	=-	=10	=10	=-	=-	=-	=-	=-	=-	=-	=-	=-	=-	=-	=-	=-	=-	=-	=-	=-	=-	=10	=10	=10	=10	=10	=10	=10	=10	=-	=-	=-	=-	=-	=-	=-	=-	=-	=-	=-	=-	=10	=10	=-	=-	=-	=-
*	*	*	*	*M4/2	*	*	*	*	*	*	*	*	*	*	*	*	*	*	*	*	*	*	*	*M4/2	*	*	*	*	*	*	*	*	*	*	*	*	*	*	*	*	*	*	*	*M4/2	*	*	*	*	*
(2F#X	.	2r	.	2r	.	.	.	2F#X	-tes	von	zum	e-	of	to	.	2Bn	ge-	sie	Im	he	A	in	pp	2cc#X~	-raum;	Welt;	Licht.	ty;	world.	light,	.	.	.	.	.	.	.	.	.	(>2Bn	pp	2r	.	2cc#~)	.	.	.	2r	.
*	*	*	*	*	*	*	*	*	*	*	*	*	*	*	*	*	*	*	*	*	*	*	*	*	*	*	*	*	*	*	*	*	*	*	*	*	*	*	*	*	*	*	*	*	*	*clefF4	*	*	*
=10	=10	=10	=10	=-	=-	=10	=10	=10	=10	=10	=10	=10	=10	=10	=10	=10	=10	=10	=10	=10	=10	=10	=10	=-	=-	=-	=-	=-	=-	=-	=-	=10	=10	=10	=10	=10	=10	=10	=10	=10	=10	=10	=10	=-	=-	=10	=10	=10	=10
*	*	*M3/2	*	*	*	*M2/2	*	*	*	*	*	*	*	*	*	*M3/2	*	*	*	*	*	*	*	*	*	*	*	*	*	*	*	*M2/2	*	*	*	*	*	*	*	*M3/2	*	*	*	*	*	*M3/2	*	*M2/2	*
[1Gn)	.	2r	.	2r	.	(1cn	> ]	[1Gn	Früh-	die-	größ-	ter-	all-	great-	.	1e-X	-kom-	muß-	-Frie-	came,	new	per-	.	2r	.	.	.	.	.	.	.	1cn	-lings-	-ser	-ten	ni-	this	est	.	1e-	.	2r	.	2r	.	2r	.	2r	.
.	.	2r	.	2r	.	.	.	.	.	.	.	.	.	.	.	.	.	.	.	.	.	.	.	2r	.	.	.	.	.	.	.	.	.	.	.	.	.	.	.	.	.	2r	.	2r	.	2r	.	2r	.
=	=	=	=	=	=	=	=	=	=	=	=	=	=	=	=	=	=	=	=	=	=	=	=	=	=	=	=	=	=	=	=	=	=	=	=	=	=	=	=	=	=	=	=	=	=	=	=	=	=
*-	*-	*-	*-	*-	*-	*-	*-	*-	*-	*-	*-	*-	*-	*-	*-	*-	*-	*-	*-	*-	*-	*-	*-	*-	*-	*-	*-	*-	*-	*-	*-	*-	*-	*-	*-	*-	*-	*-	*-	*-	*-	*-	*-	*-	*-	*-	*-	*-	*-
!!!system-decoration: [(s1,s2,s3,s4)][(s5)][(s6,s7,s8,s9)][(s10,s11,s12,s13)]
!!!RDF**kern: > = above
!!!RDF**kern: < = below
!!!EED: Daniel Wright
!!!EEV: 2021/12/10
